EdiMM/images/4drawgridline.svg

<svg width="24" height="24" viewBox="0 0 24 24" fill="none" xmlns="http://www.w3.org/2000/svg">
<path d="M8 20H5C4.73478 20 4.48043 19.8946 4.29289 19.7071C4.10536 19.5196 4 19.2652 4 19V16H8V20ZM8 14H4V10H8V14ZM8 8H4V5C4 4.73478 4.10536 4.48043 4.29289 4.29289C4.48043 4.10536 4.73478 4 5 4H8V8ZM14 20H10V16H14V20ZM14 14H10V10H14V14ZM14 8H10V4H14V8ZM19 20H16V16H20V19C20 19.2652 19.8946 19.5196 19.7071 19.7071C19.5196 19.8946 19.2652 20 19 20ZM20 14H16V10H20V14ZM20 8H16V4H19C19.2652 4 19.5196 4.10536 19.7071 4.29289C19.8946 4.48043 20 4.73478 20 5V8Z" fill="white"/>
</svg>

<svg id="_4drawgridline" data-name="4drawgridline" xmlns="http://www.w3.org/2000/svg" width="24" height="24" viewBox="0 0 24 24">
  <path id="Caminho_17" data-name="Caminho 17" d="M0,0H24V24H0Z" fill="none"/>
  <path id="Caminho_18" data-name="Caminho 18" d="M8,20H5a1,1,0,0,1-1-1V16H8Zm0-6H4V10H8ZM8,8H4V5A1,1,0,0,1,5,4H8Zm6,12H10V16h4Zm0-6H10V10h4Zm0-6H10V4h4Zm5,12H16V16h4v3A1,1,0,0,1,19,20Zm1-6H16V10h4Zm0-6H16V4h3a1,1,0,0,1,1,1Z"/>
</svg>
